X: 9
T:Marchiña
M:2/4
L:1/16
C:Pio Rodriguez Puga
S:Os Garceiras de Melide
R:Pasodoble
A:Galicia
K:C
E2 G2c2 | B6 G2 | A6 F2 | GAGF E4-| E2F2 G2A2 | FGFE D4-| D2E2 F2A2 | GA
GF E4-|
 E2 E2 G2c2 | B6 G2 | A6 F2 | GAGF E4-| E2F2 G2A2 | FGFE D4-| D2E2 F2G2
| E4 E2 E2 |1 E2 :|2|: E2 E3F | G4 E4-| E4 F3G | A4 F4-| F4 G3A | B4 G4
| A4 F4 | GAGF E4-| E4 E3F | G4 E4-| E4 F3G| A4 F4-| F4 G3A | B4 G4 |A4
F4 | E4 E2E2 :| "D.C." E2 ||

